material/.icons/material/numeric-9-plus-box-multiple-outline.svg

<svg xmlns="http://www.w3.org/2000/svg" viewBox="0 0 24 24"><path d="M21 9h-2V7h-2v2h-2v2h2v2h2v-2h2v6H7V3h14m0-2H7a2 2 0 00-2 2v14a2 2 0 002 2h14a2 2 0 002-2V3a2 2 0 00-2-2M11 9V8h1v1m2 3V8a2 2 0 00-2-2h-1a2 2 0 00-2 2v1a2 2 0 002 2h1v1H9v2h3a2 2 0 002-2M3 5H1v16a2 2 0 002 2h16v-2H3V5z"/></svg>

<?xml version="1.0" encoding="UTF-8"?><!DOCTYPE svg PUBLIC "-//W3C//DTD SVG 1.1//EN" "http://www.w3.org/Graphics/SVG/1.1/DTD/svg11.dtd"><svg xmlns="http://www.w3.org/2000/svg" xmlns:xlink="http://www.w3.org/1999/xlink" version="1.1" id="mdi-numeric-9-plus-box-multiple-outline" width="24" height="24" viewBox="0 0 24 24"><path d="M21,9H19V7H17V9H15V11H17V13H19V11H21V17H7V3H21M21,1H7A2,2 0 0,0 5,3V17A2,2 0 0,0 7,19H21A2,2 0 0,0 23,17V3A2,2 0 0,0 21,1M11,9V8H12V9M14,12V8C14,6.89 13.1,6 12,6H11A2,2 0 0,0 9,8V9C9,10.11 9.9,11 11,11H12V12H9V14H12A2,2 0 0,0 14,12M3,5H1V21A2,2 0 0,0 3,23H19V21H3V5Z" /></svg>
